X: 5831
T: Callaghan's
R: reel
M: 4/4
K: Dmajor
AFFE FEDE|F2FE FAdB|AFFE FEDE|FABA FEE2|
F3E FEDE|F2FE FAdB|AFFE FEDE|F2EG FDD2||
A3B AFF2|ABde feea|fedc BcdB|ABde fedB|
A2AB AFF2|ABde fee2|fedc BcdB|ABde fed2||

